svg/fluentui-system-icons/ic_fluent_folder_open_vertical_16_filled.svg

<svg width="16" height="16" viewBox="0 0 16 16" fill="none" xmlns="http://www.w3.org/2000/svg">
<path d="M3 11.6666C3 12.3731 3.42479 13.0103 4.07692 13.282L7.92308 14.8846C8.09239 14.9551 8.26466 14.9923 8.4339 15H8.5C8.77614 15 9 14.7761 9 14.5V4.33333C9 4.03056 8.81795 3.75748 8.53846 3.64103L4.11425 1.79761C3.81324 1.67218 3.46629 1.74082 3.2357 1.9714C3.08478 2.12232 3 2.32701 3 2.54044V11.6666ZM4.8 1L8.92308 2.71795C9.57521 2.98967 10 3.62685 10 4.33333V13H10.25C11.2165 13 12 12.2165 12 11.25V9.20285C12 9.12224 12.013 9.04215 12.0385 8.96568L12.9102 6.35055C12.9697 6.17211 13 5.98525 13 5.79715V2.75C13 1.7835 12.2165 1 11.25 1H4.8Z" fill="#212121"/>
</svg>

<svg xmlns="http://www.w3.org/2000/svg" width="16" height="16"><path d="M3 11.667a1.75 1.75 0 0 0 1.077 1.615l3.846 1.603c.17.07.342.107.51.115H8.5a.5.5 0 0 0 .5-.5V4.333a.75.75 0 0 0-.462-.692L4.114 1.798A.805.805 0 0 0 3 2.54v9.127ZM4.8 1l4.123 1.718A1.75 1.75 0 0 1 10 4.333V13h.25A1.75 1.75 0 0 0 12 11.25V9.203c0-.08.013-.16.039-.237l.871-2.615c.06-.179.09-.366.09-.554V2.75A1.75 1.75 0 0 0 11.25 1H4.8Z"/></svg>
